X: 30067
T: Oh Dear Mother My Toes Are Sore
R: barndance
M: 4/4
K: Dmajor
|:FG|AfdB A^GA^A|Bgeg Bfed|cgBg AgBe|dedB AFG^G|
AfdB A^GA^A|Bgeg Bfed|cgBg Agfe|d2 c2 d2:|
|:fg|a^gba fdAF|GB^AB e2 ef|gfag ecAc|dfBf A2 fg|
a2 ba fdAF|G2 ^AB e2 ef|gfag ecAc|dAfe d2:|

